X: 34709
T: Road To Glandree, The
R: reel
M: 4/4
K: Amajor
E|A2ce dBGB|A2ce a2gb|aece fdBd|cABG AFGE|
A2ce d~B3|EAce a2gb|aece fdBd|cABG A3:|
B|E2 G/F/E BEGB|eBGB EBGB|A2 c/B/A eAce|aece ~a3b|
aece fdBd|c/B/A BG AGFE|F/G/A dA E/G/A cA|EAGB ~A3:|

